public/assets/svg/playing.svg

<?xml version="1.0" encoding="UTF-8"?>
<svg width="20px" height="18px" viewBox="0 0 20 18" version="1.1" xmlns="http://www.w3.org/2000/svg" xmlns:xlink="http://www.w3.org/1999/xlink">
    <!-- Generator: Sketch 55.2 (78181) - https://sketchapp.com -->
    <title>atm/icon/transport/play</title>
    <desc>Created with Sketch.</desc>
    <defs>
        <path d="M11,0 L11,18 L5,14 L0,14 L0,4 L5,4 L11,0 Z M9,4 L6,6 L2,6 L2,12 L6,12 L9,14 L9,4 Z M13,8 L13,10 C13.5522847,10 14,9.55228475 14,9 C14,8.44771525 13.5522847,8 13,8 Z M13,12 L13,6 C14.6568542,6 16,7.34314575 16,9 C16,10.6568542 14.6568542,12 13,12 Z M13,13 L13,14 C15.7614237,14 18,11.7614237 18,9 C18,6.23857625 15.7614237,4 13,4 L13,5 L13,2 C16.8659932,2 20,5.13400675 20,9 C20,12.8659932 16.8659932,16 13,16 L13,13 Z" id="path-1"></path>
    </defs>
    <g id="Page-1" stroke="none" stroke-width="1" fill="none" fill-rule="evenodd">
        <g id="Group-18-Copy-5" transform="translate(-59.000000, -15.000000)">
            <g id="atm/icon/audio" transform="translate(54.000000, 9.000000)">
                <g id="Group" transform="translate(5.000000, 6.000000)">
                    <mask id="mask-2" fill="white">
                        <use xlink:href="#path-1"></use>
                    </mask>
                    <g id="Fill-2" fill-rule="nonzero"></g>
                    <g id="atm/mixin/fill/white-100%" mask="url(#mask-2)" fill="#FFFFFF">
                        <g transform="translate(-5.000000, -6.000000)" id="Rectangle">
                            <rect x="0" y="0" width="30" height="30"></rect>
                        </g>
                    </g>
                </g>
            </g>
        </g>
    </g>
</svg>

<svg width="20" height="18" xmlns="http://www.w3.org/2000/svg" xmlns:xlink="http://www.w3.org/1999/xlink"><defs><path d="M11 0v18l-6-4H0V4h5l6-4zM9 4L6 6H2v6h4l3 2V4zm4 4v2a1 1 0 000-2zm0 4V6a3 3 0 010 6zm0 1v1a5 5 0 000-10v1-3a7 7 0 010 14v-3z" id="a"/></defs><g fill="none" fill-rule="evenodd"><mask id="b" fill="#fff"><use xlink:href="#a"/></mask><g mask="url(#b)" fill="#FFF"><path d="M-5-6h30v30H-5z"/></g></g></svg>
